X: 11212
Q: "Moderate."
M: 3/4
L: 1/4
K: G
d |\
g>fg | e>fg |
ea>g | fdd |\
g>fg | (edc) | (BAG) | d2B |\
c>dc | Bdg | d>BG | BAd |\
g>fe | dge | dgf | g2z |]


